gtk-icons/Papirus-Dark-GTK/24x24/actions/im-skype.svg

<?xml version="1.0" encoding="UTF-8" standalone="no"?>
<!-- Created with Inkscape (http://www.inkscape.org/) -->

<svg
   xmlns:osb="http://www.openswatchbook.org/uri/2009/osb"
   xmlns:dc="http://purl.org/dc/elements/1.1/"
   xmlns:cc="http://creativecommons.org/ns#"
   xmlns:rdf="http://www.w3.org/1999/02/22-rdf-syntax-ns#"
   xmlns:svg="http://www.w3.org/2000/svg"
   xmlns="http://www.w3.org/2000/svg"
   xmlns:sodipodi="http://sodipodi.sourceforge.net/DTD/sodipodi-0.dtd"
   xmlns:inkscape="http://www.inkscape.org/namespaces/inkscape"
   sodipodi:docname="im-skype.svg"
   inkscape:export-filename="/home/sam/source-symbolic.png"
   inkscape:export-xdpi="270"
   inkscape:export-ydpi="270"
   height="24"
   id="svg7384"
   style="enable-background:new"
   version="1.1"
   inkscape:version="0.91 r"
   width="24">
  <sodipodi:namedview
     inkscape:bbox-nodes="true"
     inkscape:bbox-paths="false"
     bordercolor="#666666"
     borderlayer="false"
     borderopacity="1"
     inkscape:current-layer="layer12"
     inkscape:cx="11.11668"
     inkscape:cy="8.2887808"
     gridtolerance="10"
     inkscape:guide-bbox="true"
     guidetolerance="10"
     id="namedview88"
     inkscape:object-nodes="true"
     inkscape:object-paths="true"
     objecttolerance="10"
     pagecolor="#f7f7f7"
     inkscape:pageopacity="0"
     inkscape:pageshadow="2"
     showborder="true"
     showgrid="false"
     showguides="true"
     inkscape:showpageshadow="false"
     inkscape:snap-bbox="true"
     inkscape:snap-bbox-edge-midpoints="false"
     inkscape:snap-bbox-midpoints="true"
     inkscape:snap-center="false"
     inkscape:snap-global="true"
     inkscape:snap-grids="true"
     inkscape:snap-intersection-paths="true"
     inkscape:snap-midpoints="true"
     inkscape:snap-nodes="true"
     inkscape:snap-object-midpoints="true"
     inkscape:snap-others="true"
     inkscape:snap-page="false"
     inkscape:snap-smooth-nodes="true"
     inkscape:snap-to-guides="true"
     inkscape:window-height="849"
     inkscape:window-maximized="1"
     inkscape:window-width="1600"
     inkscape:window-x="0"
     inkscape:window-y="26"
     inkscape:zoom="16.15">
    <inkscape:grid
       color="#ffffff"
       dotted="false"
       empcolor="#0800ff"
       empopacity="0.4627451"
       empspacing="4"
       enabled="true"
       id="grid4866"
       opacity="0.16470588"
       originx="-244.0004"
       originy="-316.00672"
       snapvisiblegridlinesonly="true"
       spacingx="0.25px"
       spacingy="0.25px"
       type="xygrid"
       visible="true" />
  </sodipodi:namedview>
  <metadata
     id="metadata90">
    <rdf:RDF>
      <cc:Work
         rdf:about="">
        <dc:format>image/svg+xml</dc:format>
        <dc:type
           rdf:resource="http://purl.org/dc/dcmitype/StillImage" />
        <dc:title>Paper Symbolic Icon Theme</dc:title>
      </cc:Work>
    </rdf:RDF>
  </metadata>
  <title
     id="title8473">Paper Symbolic Icon Theme</title>
  <defs
     id="defs7386">
    <linearGradient
       id="linearGradient5606"
       osb:paint="solid">
      <stop
         id="stop5608"
         offset="0"
         style="stop-color:#ffffff;stop-opacity:1;" />
    </linearGradient>
  </defs>
  <g
     inkscape:groupmode="layer"
     id="layer12"
     inkscape:label="actions"
     style="display:inline"
     transform="translate(-485.0006,99.00672)">
    <path
       style="opacity:0.72;fill:#ffffff;fill-opacity:1;stroke:none"
       d="M 8.671875 5.0117188 C 7.657325 4.9337288 6.6726781 5.2456806 5.9550781 5.9628906 C 4.6537181 7.2635616 4.7041731 9.435519 5.9707031 11.078125 C 5.9247031 11.380364 5.8945312 11.688804 5.8945312 12.003906 C 5.8945312 15.374436 8.62768 18.107422 12 18.107422 C 12.31528 18.107422 12.623361 18.075347 12.925781 18.029297 C 14.569261 19.295153 16.743562 19.345585 18.044922 18.044922 C 19.346282 16.744251 19.295827 14.570342 18.029297 12.927734 C 18.075297 12.625488 18.105469 12.319021 18.105469 12.003906 C 18.105469 8.6335083 15.37232 5.9003906 12 5.9003906 C 11.68472 5.9003906 11.376629 5.9305125 11.074219 5.9765625 C 10.336979 5.4087205 9.497205 5.0751737 8.671875 5.0117188 z M 11.847656 8 L 11.849609 8 C 14.276469 8.000947 15.53125 9.0426699 15.53125 9.6542969 C 15.53125 10.268249 15.168406 10.359375 14.572266 10.359375 C 13.413746 10.359375 13.88876 9.2265625 11.71875 9.2265625 C 11.00067 9.2265625 10.103516 9.4920291 10.103516 10.173828 C 10.103516 10.72193 10.898401 10.923873 12.300781 11.205078 C 14.414631 11.66508 16 12.124162 16 13.701172 C 16 15.232181 14.466649 16 12.037109 16 C 9.6081194 16 8.0566406 14.820886 8.0566406 14.208984 C 8.0566406 13.597079 8.34133 13.443359 8.9375 13.443359 C 10.09786 13.443359 9.9433212 14.728516 12.113281 14.728516 C 12.833881 14.728516 13.896484 14.463145 13.896484 13.779297 C 13.896484 13.233242 13.840261 13.042378 12.300781 12.705078 C 10.656531 12.523577 8 12.09084 8 10.423828 C 8 8.8935611 9.4206962 8.000804 11.847656 8 z "
       transform="translate(485.0006,-99.00672)"
       id="path4140" />
  </g>
</svg>

<?xml version="1.0" encoding="UTF-8" standalone="no"?>
<!-- Created with Inkscape (http://www.inkscape.org/) -->
<svg id="svg7384" xmlns:rdf="http://www.w3.org/1999/02/22-rdf-syntax-ns#" style="enable-background:new" xmlns="http://www.w3.org/2000/svg" xmlns:osb="http://www.openswatchbook.org/uri/2009/osb" height="24" width="24" version="1.1" xmlns:cc="http://creativecommons.org/ns#" xmlns:dc="http://purl.org/dc/elements/1.1/">
 <metadata id="metadata90">
  <rdf:RDF>
   <cc:Work rdf:about="">
    <dc:format>image/svg+xml</dc:format>
    <dc:type rdf:resource="http://purl.org/dc/dcmitype/StillImage"/>
    <dc:title>Paper Symbolic Icon Theme</dc:title>
   </cc:Work>
  </rdf:RDF>
 </metadata>
 <title id="title8473">Paper Symbolic Icon Theme</title>
 <g id="layer12" transform="translate(-485 99.007)">
  <path id="path4140" opacity=".72" d="m8.6719 5.0117c-1.0146-0.078-1.9992 0.234-2.7168 0.9512-1.3014 1.3007-1.2509 3.4726 0.0156 5.1151-0.046 0.302-0.0762 0.611-0.0762 0.926 0 3.37 2.7332 6.103 6.1055 6.103 0.315 0 0.623-0.032 0.926-0.078 1.643 1.266 3.818 1.317 5.119 0.016s1.251-3.475-0.016-5.117c0.046-0.303 0.076-0.609 0.076-0.924 0-3.3705-2.733-6.1036-6.105-6.1036-0.315 0-0.623 0.0301-0.926 0.0762-0.737-0.5679-1.5768-0.9014-2.4021-0.9649zm3.1761 2.9883h0.002c2.426 0.0009 3.681 1.0427 3.681 1.6543 0 0.6137-0.363 0.7047-0.959 0.7047-1.158 0-0.683-1.1324-2.853-1.1324-0.718 0-1.615 0.2654-1.615 0.9474 0 0.548 0.794 0.75 2.197 1.031 2.114 0.46 3.699 0.919 3.699 2.496 0 1.531-1.533 2.299-3.963 2.299-2.4289 0-3.9804-1.179-3.9804-1.791s0.2847-0.766 0.8809-0.766c1.1605 0 1.0058 1.286 3.1755 1.286 0.721 0 1.783-0.266 1.783-0.95 0-0.546-0.056-0.737-1.595-1.074-1.644-0.181-4.301-0.614-4.301-2.281 0-1.5304 1.4207-2.4232 3.848-2.424z" transform="translate(485 -99.007)" fill="#fff"/>
 </g>
</svg>
